X:159
T:B159-  Gilderoy
Q:1/4=120
L:1/4
M:C
K:Am
E|A3/2B/2 (c/2B/2)(c/2d/2)|ed/2c/2dc/2d/2|\
eG(c/2A/2)(G/2E/2)|G3/2A/2Gc/2B/2|\
(A/2^G/2)(A/2B/2) (c/2B/2)(c/2d/2)|\
ed/2c/2df|e(d/2c/4B/4)cB/2A/2|A2A||e/2f/2|\
g3/2a/2 (g/2f/2)(e/2d/2)|(f/2e/2)(d/2c/2)dc/2d/2|\
eG(c/2A/2)(G/2E/2)|G3/2A/2Ge/2f/2|\
g3/2a/2 (g/2f/2)(e/2d/2)|(f/2e/2)(d/2c/2)df|\
e(d/2c/4B/4) (c/2d/2) B/2A/2|A2A|]
